www/assets/icons/data_array.svg

<svg xmlns="http://www.w3.org/2000/svg" width="24" height="24" viewBox="0 0 24 24" fill='currentColor'><path d="M15 4v2h3v12h-3v2h5V4zM4 20h5v-2H6V6h3V4H4z"/></svg>

<svg width="24" height="24" viewBox="0 0 24 24" xmlns="http://www.w3.org/2000/svg" fill='currentColor'><path d="M15 4V6H18V18H15V20H20V4H15Z"/><path d="M4 20H9V18H6V6H9V4H4V20Z"/></svg>
